X:2217
T:Gyn Ennym (KV217) 
C:Traditional
O:Isle of Man
Z:clague collection
B:Kiaull Vannin #217 
M:3/2 
L:1/4 
K:D 
A F E|D3 D D E|F3 D F A|B3 A B/A/ G/F/|E3 A B/c/ d/B/| 
A3 F/E/ D D/E/|F3 D F A|B>A F D E E| D3|| 

